X:3
T:Scan Tester's version of the Oyster Girl
C:by ear, from Will Duke's workshop
N:by ear, from the playing of Will Duke
Q:1/4=160
I:abc2nwc
M:6/8
L:1/8
K:G
B2c|ded B2G|A2F D3|G2G BAB|c2B ABc|
ded B2G|"^doubtful bit"A2F D2c|d2B cBA|G3:|
G2A|B2d B2d|Bcd e3|A2c A2c|ABc d3|G2G GFG|
A2A A2G|F3E3|D3-D3|B2d B2d|Bcd e3|
A2c A2c|ABc d3|ded Bdg|f2e c2e|d2B cBA|G3|]


